X: 4
T: The Dunmore Lasses
R: reel
M: 4/4
L: 1/8
K: Emin
(3EEE EF GFGA | Be (3eee Be (3eee | EDEF (3GGG BG | AcBA GAFA |
(3EEE EF GFGA | Beed edef | (3gfe fd ecdB |1 AcBA GAFA:|2 AcBA GE (3EEE |
gfeg fedA | Be (3eee Be (3eee | gfeg fedB | AcBA GE (3EEE |
gfeg fedA | Be (3eee edef | (3gfe fd eBdB |1 AcBA GE (3EEE :|2 AcBA GAFA |


Tune 462	Setting 13345

